X: 98
T: Permanent vierge / Pulchra es / Sancta Dei genitrix
N: Derived from Ock3027-Permanent_vierge__Pulchra_es__Sancta_Dei_genitrix.krn
C: Johannes Ockeghem
%%abc-version 2.0
%%abcx-abcm2ps-target-version 5.9.1 (29 Sep 2008)
%%abc-creator hum2abc beta
%%abcx-conversion-date 2019/02/17 07:26:16
%%abc-edited-by Jesse Rodin
%%abc-edited-by Megan K. Eagen 1/11/2012
%%abcx-initial-encoding-date 2012/11/14/
%%humdrum-veritas 1919796046
%%humdrum-veritas-data 269618136
%%linebreak <none>
%%barnumbers 0
L: 1/4
M: 3/1
Q: 1/2=120
V: 1 clef=treble
V: 2 clef=treble-8
V: 3 clef=treble-8
V: 4 clef=bass
V: 5 clef=bass
K: C
[V:1] D4A2A4F2 | 
[V:2] d4f3e/d/c2d2 | 
[V:3] z12 | 
[V:4] z12 | 
[V:5] z12 | 
[V:1] G2A4F2E4 | 
[V:2] B2c2A2d4^c2 | 
[V:3] z12 | 
[V:4] z12 | 
[V:5] G,2F,4D,2A,4 | 
[V:1] D4z2F4D2 | 
[V:2] d3c/B/A2F3DF2 | 
[V:3] F8F4 | 
[V:4] z12 | 
[V:5] D,8D,4 | 
[V:1] ^C3DE4z2D2- | 
[V:2] E6F2G4 | 
[V:3] A8_B4- | 
[V:4] z12 | 
[V:5] A,,8G,,4 | 
[V:1] D2D2G4G4 | 
[V:2] z2d2c4B4 | 
[V:3] B4G8 | 
[V:4] z12 | 
[V:5] G,4E,C,2D,E,4 | 
[V:1] A8A4 | 
[V:2] A4A2d3cd2 | 
[V:3] F4A8 | 
[V:4] D,8D,4- | 
[V:5] z4F,8 | 
[V:1] F3E/D/E4z2C2 | 
[V:2] A2B2c2BAG3F/G/ | 
[V:3] z12 | 
[V:4] D,4C,8 | 
[V:5] D,4A,,4E,4 | 
[V:1] D8F4 | 
[V:2] A4B4z2B2 | 
[V:3] A4G4A4 | 
[V:4] F,4G,4F,4 | 
[V:5] D,4G,,4D,4 | 
[V:1] E3DE2F3GA2- | 
[V:2] c6B2A4 | 
[V:3] z12 | 
[V:4] G,4A,4A,4 | 
[V:5] C,4A,,2D,4F,2- | 
[V:1] AFF4D2E4 | 
[V:2] d2c2BAd4^c2 | 
[V:3] z12 | 
[V:4] A,2A,2A,4G,4 | 
[V:5] F,G,A,2D,2F,2E,4 | 
[V:1] z2F2EFG3FED | 
[V:2] d4G2c4c2 | 
[V:3] F4G8 | 
[V:4] z12 | 
[V:5] D,4C,8 | 
[V:1] D4E2D4^C2 | 
[V:2] A3Bc2BAG4 | 
[V:3] F4E8 | 
[V:4] F,4G,8 | 
[V:5] D,4z4E,4 | 
[V:1] D4z4E4 | 
[V:2] z4A4B2c2 | 
[V:3] D8z4 | 
[V:4] A,8G,4 | 
[V:5] F,2D,2F,4E,2C,2 | 
[V:1] F2ED2CC4B,2 | 
[V:2] A2_B3GG4G2 | 
[V:3] F6E2D4 | 
[V:4] z12 | 
[V:5] D,2_B,,4C,2G,,4 | 
[V:1] !fermata!C12 | 
[V:2] E3F!fermata!G4z4 | 
[V:3] !fermata!C12 | 
[V:4] !fermata!G,4G,4G,4 | 
[V:5] !fermata!z4E,2C,2E,3F, | 
[V:1] z4z4A,4 | 
[V:2] c3de4d4 | 
[V:3] C8D4 | 
[V:4] E,4G,4z4 | 
[V:5] G,4E,4F,2D,2- | 
[V:1] A,3B,C4D4 | 
[V:2] d3GG4z4 | 
[V:3] F4G4A4- | 
[V:4] A,4G,4F,4 | 
[V:5] D,2F,2E,4D,2C,B,, | 
[V:1] z2E4G4E2 | 
[V:2] c8c3A | 
[V:3] A4G8 | 
[V:4] z12 | 
[V:5] A,,4C,8 | 
[V:1] F2EDC4z2F2 | 
[V:2] A6c4B2 | 
[V:3] z12 | 
[V:4] F,4F,6F,2 | 
[V:5] D,4F,2E,2D,4 | 
[V:1] G6c6 | 
[V:2] c3de8 | 
[V:3] G8A4- | 
[V:4] E,12 | 
[V:5] C,8A,,4 | 
[V:1] A6F4D2 | 
[V:2] z2A4c3BA2 | 
[V:3] A4F8 | 
[V:4] F,8z4 | 
[V:5] D,4z4A,4 | 
[V:1] E4z2A4G2 | 
[V:2] G2B2c2A3FG2 | 
[V:3] E4z4z4 | 
[V:4] G,4F,4E,4 | 
[V:5] B,4A,2D4C2 | 
[V:1] F2D2E2C3B,A,2 | 
[V:2] A2B2c6d2 | 
[V:3] D4C4E2F2 | 
[V:4] z12 | 
[V:5] D4G,4z2D,2 | 
[V:1] G,A,B,A,/B,/C3DE4 | 
[V:2] B4z2e3ce2 | 
[V:3] G8E4 | 
[V:4] z12 | 
[V:5] E,4C,8 | 
[V:1] A,4z2A4A2 | 
[V:2] d2ABc2de2^c3/B/^c | 
[V:3] F4E8 | 
[V:4] z12 | 
[V:5] D,4A,,8 | 
[V:1] F3GA4D4 | 
[V:2] d2cBA4F3G | 
[V:3] D4D4z4 | 
[V:4] z4z4D,4 | 
[V:5] A,4F,3G,A,4 | 
[V:1] F4D2E3CD2 | 
[V:2] A4B2cde2d2 | 
[V:3] z12 | 
[V:4] D,4F,2E,2G,4 | 
[V:5] z4D,2C,4B,,2 | 
[V:1] F2E3DD3^CCB, | 
[V:2] c4cBA4A2 | 
[V:3] z12 | 
[V:4] A,2G,4F,2E,4 | 
[V:5] A,,2C,4D,2A,,4 | 
[V:1] D12- | 
[V:2] F6_B4A2 | 
[V:3] D4F3DF3G | 
[V:4] D,12- | 
[V:5] A,4D,8 | 
[V:1] D12 |]  
[V:2] A12 |]  
[V:3] A4D8 |]  
[V:4] D,12 |]  
[V:5] D,12 |]  
